X:1
T:These Old Cumberland Mountain Farms
M:4/4
L:1/8
K:G
 Bd| d2 BG B2 cB| A E- E4 ee| d2 cA F/2F/2 FE D| B6| Bc| d2 BG B2 cB|\
 A/2A/2 E- E4e-e| d2 cA FD BB/2-A/2| G6||
